svg/u1faa7.svg

<svg viewBox="0 0 128 128" xmlns="http://www.w3.org/2000/svg">
  <defs>
    <linearGradient id="SVGID_1_" gradientUnits="userSpaceOnUse" x1="66" x2="66" y1="81.6261" y2="96.6469">
      <stop offset="0.1668" stop-color="#424242"/>
      <stop offset="0.9436" stop-color="#424242" stop-opacity="0"/>
    </linearGradient>
    <linearGradient id="SVGID_2_" gradientTransform="matrix(-1 0 0 -1 0 0)" gradientUnits="userSpaceOnUse" x1="-66" x2="-66" y1="-23.013894" y2="-9.5442">
      <stop offset="0.2317" stop-color="#424242"/>
      <stop offset="0.9434" stop-color="#424242" stop-opacity="0"/>
    </linearGradient>
    <linearGradient id="SVGID_4_" gradientUnits="userSpaceOnUse" x1="61.8605" x2="61.8605" y1="23.2161" y2="-6.0208">
      <stop offset="0.2015" stop-color="#F5F5F5"/>
      <stop offset="1" stop-color="#BDBDBD"/>
    </linearGradient>
    <linearGradient id="SVGID_5_" gradientTransform="matrix(0 -1 1 0 0 0)" gradientUnits="userSpaceOnUse" x1="-49.8349" x2="-49.8349" y1="34.717" y2="5.48">
      <stop offset="0.5075" stop-color="#BDBDBD" stop-opacity="0"/>
      <stop offset="1" stop-color="#BDBDBD"/>
    </linearGradient>
    <linearGradient id="SVGID_3_" gradientUnits="userSpaceOnUse" x1="63.5" x2="63.5" y1="90.3355" y2="28.3077">
      <stop offset="0.3731" stop-color="#9E9E9E"/>
      <stop offset="1" stop-color="#BDBDBD"/>
    </linearGradient>
  </defs>
  <path d="M76.1,124.17 L59.47,124.17 L59.47,4 L71.43,4 C72.12,4 72.79,4.29 73.26,4.8 L75.71,7.45 C75.96,7.72 76.1,8.07 76.1,8.44 L76.1,124.17 Z" fill="#A3673E"/>
  <path d="M72.53,124.17 L55.9,124.17 L55.9,5.36 C55.9,4.61 56.51,4 57.26,4 L71.17,4 C71.92,4 72.53,4.61 72.53,5.36 L72.53,124.17 Z" fill="#BF855E"/>
  <path d="M76.1,83 L55.9,83.02 L55.9,98.02 L76.1,98 Z" fill="url(#SVGID_1_)"/>
  <path d="M55.9,22.02 L76.1,22 L76.1,7 L55.9,7.02 Z" fill="url(#SVGID_2_)"/>
  <path d="M108.54,89.63 L22.25,89.63 C21.9,89.63 21.56,89.54 21.26,89.37 L17.29,87.14 C16.77,86.85 16.44,86.29 16.44,85.69 L16.44,13.99 C16.44,13.45 16.88,13 17.43,13 L106.53,13 C107.01,13 107.49,13.16 107.87,13.45 L109.76,14.9 C110.26,15.28 110.55,15.88 110.55,16.5 L110.55,87.6 C110.56,88.73 109.65,89.63 108.54,89.63 Z" fill="url(#SVGID_3_)"/>
  <path d="M106.27,86.67 L17.45,86.67 C16.89,86.67 16.44,86.22 16.44,85.66 L16.44,14.01 C16.44,13.45 16.89,13 17.45,13 L106.27,13 C106.83,13 107.28,13.45 107.28,14.01 L107.28,85.66 C107.28,86.22 106.83,86.67 106.27,86.67 Z" fill="#F5F5F5"/>
  <path d="M40.24,33.75 L83.28,33.75 Q85.144,33.75 86.462,35.068 Q87.78,36.386 87.78,38.25 Q87.78,40.114 86.462,41.432 Q85.144,42.75 83.28,42.75 L40.24,42.75 Q38.376,42.75 37.058,41.432 Q35.74,40.114 35.74,38.25 Q35.74,36.386 37.058,35.068 Q38.376,33.75 40.24,33.75 Z" fill="#616161"/>
  <path d="M40.72,56.25 L83.76,56.25 Q85.624,56.25 86.942,57.568 Q88.26,58.886 88.26,60.75 Q88.26,62.614 86.942,63.932 Q85.624,65.25 83.76,65.25 L40.72,65.25 Q38.856,65.25 37.538,63.932 Q36.22,62.614 36.22,60.75 Q36.22,58.886 37.538,57.568 Q38.856,56.25 40.72,56.25 Z" fill="#616161"/>
  <path d="M106.31,26.56 L17.41,26.56 C16.87,26.56 16.44,26.12 16.44,25.59 L16.44,13.97 C16.44,13.43 16.88,13 17.41,13 L106.3,13 C106.84,13 107.27,13.44 107.27,13.97 L107.27,25.59 C107.28,26.13 106.84,26.56 106.31,26.56 Z" fill="url(#SVGID_4_)"/>
  <path d="M30.01,13.99 L30.01,85.68 C30.01,86.23 29.57,86.67 29.02,86.67 L17.43,86.67 C16.88,86.67 16.44,86.23 16.44,85.68 L16.44,13.99 C16.44,13.44 16.88,13 17.43,13 L29.02,13 C29.56,13 30.01,13.44 30.01,13.99 Z" fill="url(#SVGID_5_)"/>
</svg>

<svg viewBox="0 0 128 128" xmlns="http://www.w3.org/2000/svg">
  <path d="M76.1,124.17H59.47V4h11.96c0.69,0,1.36,0.29,1.83,0.8l2.45,2.65c0.25,0.27,0.39,0.62,0.39,0.99 V124.17z" fill="#A3673E"/>
  <path d="M72.53,124.17H55.9V5.36C55.9,4.61,56.51,4,57.26,4h13.91c0.75,0,1.36,0.61,1.36,1.36V124.17z" fill="#BF855E"/>
  <linearGradient id="SVGID_1_" gradientUnits="userSpaceOnUse" x1="66" x2="66" y1="81.6261" y2="96.6469">
    <stop offset="0.1668" stop-color="#424242"/>
    <stop offset="0.9436" stop-color="#424242" stop-opacity="0"/>
  </linearGradient>
  <polygon fill="url(#SVGID_1_)" points="76.1,83 55.9,83.02 55.9,98.02 76.1,98 "/>
  <linearGradient id="SVGID_2_" gradientTransform="matrix(-1 0 0 -1 132 23.0208)" gradientUnits="userSpaceOnUse" x1="66" x2="66" y1="6.906071e-03" y2="13.4766">
    <stop offset="0.2317" stop-color="#424242"/>
    <stop offset="0.9434" stop-color="#424242" stop-opacity="0"/>
  </linearGradient>
  <polygon fill="url(#SVGID_2_)" points="55.9,22.02 76.1,22 76.1,7 55.9,7.02 "/>
  <g>
    <linearGradient id="SVGID_3_" gradientUnits="userSpaceOnUse" x1="63.5" x2="63.5" y1="90.3355" y2="28.3077">
      <stop offset="0.3731" stop-color="#9E9E9E"/>
      <stop offset="1" stop-color="#BDBDBD"/>
    </linearGradient>
    <path d="M108.54,89.63H22.25c-0.35,0-0.69-0.09-0.99-0.26l-3.97-2.23c-0.52-0.29-0.85-0.85-0.85-1.45 V13.99c0-0.54,0.44-0.99,0.99-0.99h89.1c0.48,0,0.96,0.16,1.34,0.45l1.89,1.45c0.5,0.38,0.79,0.98,0.79,1.6v71.1 C110.56,88.73,109.65,89.63,108.54,89.63z" fill="url(#SVGID_3_)"/>
    <path d="M106.27,86.67H17.45c-0.56,0-1.01-0.45-1.01-1.01V14.01c0-0.56,0.45-1.01,1.01-1.01h88.82 c0.56,0,1.01,0.45,1.01,1.01v71.65C107.28,86.22,106.83,86.67,106.27,86.67z" fill="#F5F5F5"/>
    <g>
      <line fill="none" stroke="#616161" stroke-linecap="round" stroke-miterlimit="10" stroke-width="9" x1="40.24" x2="83.28" y1="38.25" y2="38.25"/>
      <line fill="none" stroke="#616161" stroke-linecap="round" stroke-miterlimit="10" stroke-width="9" x1="40.72" x2="83.76" y1="60.75" y2="60.75"/>
    </g>
  </g>
  <linearGradient id="SVGID_4_" gradientUnits="userSpaceOnUse" x1="61.8605" x2="61.8605" y1="23.2161" y2="-6.0208">
    <stop offset="0.2015" stop-color="#F5F5F5"/>
    <stop offset="1" stop-color="#BDBDBD"/>
  </linearGradient>
  <path d="M106.31,26.56H17.41c-0.54,0-0.97-0.44-0.97-0.97V13.97c0-0.54,0.44-0.97,0.97-0.97h88.89 c0.54,0,0.97,0.44,0.97,0.97v11.62C107.28,26.13,106.84,26.56,106.31,26.56z" fill="url(#SVGID_4_)"/>
  <linearGradient id="SVGID_5_" gradientTransform="matrix(0 -1 1 0 0.0256 99.6954)" gradientUnits="userSpaceOnUse" x1="49.8605" x2="49.8605" y1="34.6914" y2="5.4544">
    <stop offset="0.5075" stop-color="#BDBDBD" stop-opacity="0"/>
    <stop offset="1" stop-color="#BDBDBD"/>
  </linearGradient>
  <path d="M30.01,13.99v71.69c0,0.55-0.44,0.99-0.99,0.99H17.43c-0.55,0-0.99-0.44-0.99-0.99V13.99 c0-0.55,0.44-0.99,0.99-0.99h11.59C29.56,13,30.01,13.44,30.01,13.99z" fill="url(#SVGID_5_)"/>
</svg>
